X: 6
T: The Musical Priest
R: reel
M: 4/4
L: 1/8
K: Amin
|:AG| EAAG AGAc | BAGe dBAG | EAAG AGAc | BAGE A2 AB :||
|:c2 cB cedc | BGdG eG d2 | cBAB cdea | gedB A2 AB :||
|:cA A2 agea | gedB GABd | cA A2 agea | gedB A2 A2 :||


Tune 73	Setting 73

